svg/icon/blk.svg

<svg height="32" viewBox="0 0 32 32" width="32" xmlns="http://www.w3.org/2000/svg" xmlns:xlink="http://www.w3.org/1999/xlink"><defs><linearGradient id="a" x1="50%" x2="50%" y1="0%" y2="100%"><stop offset="0" stop-color="#fff" stop-opacity=".5"/><stop offset="1" stop-opacity=".5"/></linearGradient><circle id="b" cx="16" cy="15" r="15"/><filter id="c" height="111.7%" width="111.7%" x="-5.8%" y="-4.2%"><feOffset dy=".5" in="SourceAlpha" result="shadowOffsetOuter1"/><feGaussianBlur in="shadowOffsetOuter1" result="shadowBlurOuter1" stdDeviation=".5"/><feComposite in="shadowBlurOuter1" in2="SourceAlpha" operator="out" result="shadowBlurOuter1"/><feColorMatrix in="shadowBlurOuter1" values="0 0 0 0 0   0 0 0 0 0   0 0 0 0 0  0 0 0 0.199473505 0"/></filter><path id="d" d="m23.099711 10.1297698c.0469225 2.9136734-2.4360436 3.7324349-2.4360436 3.7324349s1.0119895-1.0006696.9648964-3.5636199c-.0470931-2.56295022-1.9297929-3.82880079-1.9297929-3.82880079s3.3540176.7463124 3.4009401 3.65998579zm-11.1634511 13.6892024-3.4362599.1686404v-.3210453s2.1026382-.2168234 2.1026382-3.9892361v-9.6400867c0-3.19474073-2.1026382-3.7484958-2.1026382-3.7484958v-.2887487l3.4362599.16829126zm5.4914638.1805116c-1.4945231.0122203-4.2678966-.1965726-4.2678966-.1965726v-17.6101793c1.8280992-.02426606 2.4674391-.27705211 3.9735648-.06040329 1.5061257.21664881 2.8008445 1.72184307 3.153872 3.22686276.3530275 1.50501973-.0233759 2.93776493-.5062507 3.72021453s-1.5414456 1.3246827-1.5414456 1.3246827 1.6004826.553755 2.1655997 1.0352356c.565117.4814807 1.6591782 1.793943 1.2355111 4.6475623-.4236672 2.8536193-2.7186022 3.9007261-4.2131253 3.9125973zm3.9716879-.6497719s1.6294891-1.4208741 1.5578257-4.3017272-1.5578257-4.2350391-1.5578257-4.2350391 3.0651459.770753 3.1002951 4.2020443c.0351492 3.4312912-3.1002951 4.334722-3.1002951 4.334722zm-3.1009776-10.3348991c1.0981562-1.460852.7531482-4.20990023-.5765491-5.14999198-1.3296973-.94009176-2.7300342-.46943486-3.0008195-.20477765-.2707852.26465722-.2583295 6.43068153-.2583295 6.43068153s2.7373712.3854638 3.8356981-1.0759119zm.2037288 2.6247501c-1.0276873-.4575637-4.0399387-.3371062-4.0399387-.3371062s-.0467519 1.5570433.0626201 4.4708913 1.0827998 2.8979616 2.0947894 2.9377649c1.0119895.0398033 2.9421237-.032122 3.5775392-2.5446198.6354154-2.5124977-.6668109-4.0690173-1.69501-4.5264065z"/><filter id="e" height="119.4%" width="121.9%" x="-10.9%" y="-6.9%"><feOffset dy=".5" in="SourceAlpha" result="shadowOffsetOuter1"/><feGaussianBlur in="shadowOffsetOuter1" result="shadowBlurOuter1" stdDeviation=".5"/><feColorMatrix in="shadowBlurOuter1" values="0 0 0 0 0   0 0 0 0 0   0 0 0 0 0  0 0 0 0.204257246 0"/></filter></defs><g fill="none" fill-rule="evenodd"><use fill="#000" filter="url(#c)" xlink:href="#b"/><use fill="#181818" xlink:href="#b"/><use fill="url(#a)" xlink:href="#b"/><circle cx="16" cy="15" r="14.5" stroke="#000" stroke-opacity=".097"/><g fill-rule="nonzero"><use fill="#000" filter="url(#e)" xlink:href="#d"/><use fill="#fff" fill-rule="evenodd" xlink:href="#d"/></g></g></svg>

<svg xmlns="http://www.w3.org/2000/svg" xmlns:xlink="http://www.w3.org/1999/xlink" width="32" height="32" viewBox="0 0 32 32">
  <defs>
    <linearGradient id="blk-c" x1="50%" x2="50%" y1="0%" y2="100%">
      <stop offset="0%" stop-color="#FFF" stop-opacity=".5"/>
      <stop offset="100%" stop-opacity=".5"/>
    </linearGradient>
    <circle id="blk-b" cx="16" cy="15" r="15"/>
    <filter id="blk-a" width="111.7%" height="111.7%" x="-5.8%" y="-4.2%" filterUnits="objectBoundingBox">
      <feOffset dy=".5" in="SourceAlpha" result="shadowOffsetOuter1"/>
      <feGaussianBlur in="shadowOffsetOuter1" result="shadowBlurOuter1" stdDeviation=".5"/>
      <feComposite in="shadowBlurOuter1" in2="SourceAlpha" operator="out" result="shadowBlurOuter1"/>
      <feColorMatrix in="shadowBlurOuter1" values="0 0 0 0 0   0 0 0 0 0   0 0 0 0 0  0 0 0 0.199473505 0"/>
    </filter>
    <path id="blk-e" d="M23.099711,10.1297698 C23.1466335,13.0434432 20.6636674,13.8622047 20.6636674,13.8622047 C20.6636674,13.8622047 21.6756569,12.8615351 21.6285638,10.2985848 C21.5814707,7.73563458 19.6987709,6.46978401 19.6987709,6.46978401 C19.6987709,6.46978401 23.0527885,7.21609641 23.099711,10.1297698 Z M11.9362599,23.8189722 L8.5,23.9876126 L8.5,23.6665673 C8.5,23.6665673 10.6026382,23.4497439 10.6026382,19.6773312 L10.6026382,10.0372445 C10.6026382,6.84250377 8.5,6.2887487 8.5,6.2887487 L8.5,6 L11.9362599,6.16829126 L11.9362599,23.8189722 Z M17.4277237,23.9994838 C15.9332006,24.0117041 13.1598271,23.8029112 13.1598271,23.8029112 L13.1598271,6.1927319 C14.9879263,6.16846584 15.6272662,5.91567979 17.1333919,6.13232861 C18.6395176,6.34897742 19.9342364,7.85417168 20.2872639,9.35919137 C20.6402914,10.8642111 20.263888,12.2969563 19.7810132,13.0794059 C19.2981384,13.8618555 18.2395676,14.4040886 18.2395676,14.4040886 C18.2395676,14.4040886 19.8400502,14.9578436 20.4051673,15.4393242 C20.9702843,15.9208049 22.0643455,17.2332672 21.6406784,20.0868865 C21.2170112,22.9405058 18.9220762,23.9876126 17.4275531,23.9994838 L17.4277237,23.9994838 Z M21.3994116,23.3497119 C21.3994116,23.3497119 23.0289007,21.9288378 22.9572373,19.0479847 C22.8855739,16.1671316 21.3994116,14.8129456 21.3994116,14.8129456 C21.3994116,14.8129456 24.4645575,15.5836986 24.4997067,19.0149899 C24.5348559,22.4462811 21.3994116,23.3497119 21.3994116,23.3497119 Z M18.298434,13.0148128 C19.3965902,11.5539608 19.0515822,8.80491257 17.7218849,7.86482082 C16.3921876,6.92472906 14.9918507,7.39538596 14.7210654,7.66004317 C14.4502802,7.92470039 14.4627359,14.0907247 14.4627359,14.0907247 C14.4627359,14.0907247 17.2001071,14.4761885 18.298434,13.0148128 Z M18.5021628,15.6395629 C17.4744755,15.1819992 14.4622241,15.3024567 14.4622241,15.3024567 C14.4622241,15.3024567 14.4154722,16.8595 14.5248442,19.773348 C14.6342162,22.687196 15.607644,22.6713096 16.6196336,22.7111129 C17.6316231,22.7509162 19.5617573,22.6789909 20.1971728,20.1664931 C20.8325882,17.6539954 19.5303619,16.0974758 18.5021628,15.6400866 L18.5021628,15.6395629 Z"/>
    <filter id="blk-d" width="121.9%" height="119.4%" x="-10.9%" y="-6.9%" filterUnits="objectBoundingBox">
      <feOffset dy=".5" in="SourceAlpha" result="shadowOffsetOuter1"/>
      <feGaussianBlur in="shadowOffsetOuter1" result="shadowBlurOuter1" stdDeviation=".5"/>
      <feColorMatrix in="shadowBlurOuter1" values="0 0 0 0 0   0 0 0 0 0   0 0 0 0 0  0 0 0 0.204257246 0"/>
    </filter>
  </defs>
  <g fill="none" fill-rule="evenodd">
    <use fill="#000" filter="url(#blk-a)" xlink:href="#blk-b"/>
    <use fill="#181818" xlink:href="#blk-b"/>
    <use fill="url(#blk-c)" style="mix-blend-mode:soft-light" xlink:href="#blk-b"/>
    <circle cx="16" cy="15" r="14.5" stroke="#000" stroke-opacity=".097"/>
    <g fill-rule="nonzero">
      <use fill="#000" filter="url(#blk-d)" xlink:href="#blk-e"/>
      <use fill="#FFF" fill-rule="evenodd" xlink:href="#blk-e"/>
    </g>
  </g>
</svg>
